Papirus/48x48/apps/unity-tweak-tool.svg

<?xml version="1.0" encoding="UTF-8" standalone="no"?>
<svg xmlns="http://www.w3.org/2000/svg" height="48" width="48" version="1">
 <rect ry="20" rx="20" transform="matrix(0,-1,-1,0,0,0)" height="40" width="40" y="-44" x="-44" fill="#a43b84"/>
 <path opacity=".2" d="m24 4c-11.08 0-20 8.92-20 20 0 0.168 0.008 0.333 0.0117 0.5 0.2647-10.846 9.0763-19.5 19.988-19.5s19.724 8.6539 19.988 19.5c0.004-0.16686 0.0117-0.33213 0.0117-0.5 0-11.08-8.92-20-20-20z" fill="#fff"/>
 <path opacity=".2" d="m4.0117 24.5c-0.0041 0.167-0.0117 0.332-0.0117 0.5 0 11.08 8.92 20 20 20s20-8.92 20-20c0-0.16787-0.0076-0.33314-0.01172-0.5-0.264 10.846-9.076 19.5-19.988 19.5s-19.724-8.654-19.988-19.5z"/>
 <path opacity=".2" stroke-width="4" d="m16 15v12s0 8 6 8h10v-20h-4v16h-5c-3 0-3-4-3-4v-12h-4z"/>
 <path d="m16 14v12s0 8 6 8h10v-20h-4v16h-5c-3 0-3-4-3-4v-12h-4z" stroke-width="4" fill="#fff"/>
 <circle opacity=".2" style="enable-background:new" cx="36" cy="37" r="11"/>
 <circle style="enable-background:new" cx="36" cy="36" r="11" fill="#42a1cd"/>
 <path d="m34.488 29.999-0.13345 1.5804a4.7567 4.7143 0 0 0 -1.3902 0.79689l-1.4493-0.67635-1.5135 2.5982 1.3159 0.9057a4.7567 4.7143 0 0 0 -0.07265 0.7952 4.7567 4.7143 0 0 0 0.06922 0.79855l-1.314 0.903 1.5135 2.5982 1.4459-0.67466a4.7567 4.7143 0 0 0 1.393 0.792l0.133 1.584h3.027l0.13344-1.5804a4.7567 4.7143 0 0 0 1.3902 -0.79688l1.4493 0.67634 1.5135-2.5982-1.3159-0.9057a4.7567 4.7143 0 0 0 0.07265 -0.79519 4.7567 4.7143 0 0 0 -0.06922 -0.79855l1.313-0.901-1.5135-2.5982-1.446 0.67467a4.7567 4.7143 0 0 0 -1.393 -0.792l-0.13344-1.5837h-3.027zm1.5135 4.2857a1.7297 1.7143 0 0 1 1.7297 1.7143 1.7297 1.7143 0 0 1 -1.7297 1.7143 1.7297 1.7143 0 0 1 -1.7297 -1.7143 1.7297 1.7143 0 0 1 1.7297 -1.7143z" style="enable-background:new" fill="#fff"/>
</svg>

<svg xmlns="http://www.w3.org/2000/svg" width="48" height="48" version="1">
 <circle style="opacity:0.2" cx="24" cy="25" r="20"/>
 <circle style="fill:#a43b84" cx="24" cy="24" r="20"/>
 <path style="opacity:0.2" d="M 16,15 V 27 C 16,27 16,35 22,35 H 32 V 15 H 28 V 31 H 23 C 20,31 20,27 20,27 V 15 Z"/>
 <path style="fill:#ffffff" d="M 16,14 V 26 C 16,26 16,34 22,34 H 32 V 14 H 28 V 30 H 23 C 20,30 20,26 20,26 V 14 Z"/>
 <path style="opacity:0.1;fill:#ffffff" d="M 24,4 A 20,20 0 0 0 4,24 20,20 0 0 0 4.0215,24.582 20,20 0 0 1 24,5 20,20 0 0 1 43.979,24.418 20,20 0 0 0 44,24 20,20 0 0 0 24,4 Z"/>
 <circle opacity=".2" cx="36" cy="37" r="11"/>
 <circle fill="#42a1cd" cx="36" cy="36" r="11"/>
 <path fill="#fff" d="m34.488 29.999-0.13345 1.5804a4.7567 4.7143 0 0 0 -1.3902 0.79689l-1.4493-0.67635-1.5135 2.5982 1.3159 0.9057a4.7567 4.7143 0 0 0 -0.07265 0.7952 4.7567 4.7143 0 0 0 0.06922 0.79855l-1.314 0.903 1.5135 2.5982 1.4459-0.67466a4.7567 4.7143 0 0 0 1.393 0.792l0.133 1.584h3.027l0.13344-1.5804a4.7567 4.7143 0 0 0 1.3902 -0.79688l1.4493 0.67634 1.5135-2.5982-1.3159-0.9057a4.7567 4.7143 0 0 0 0.07265 -0.79519 4.7567 4.7143 0 0 0 -0.06922 -0.79855l1.313-0.901-1.5135-2.5982-1.446 0.67467a4.7567 4.7143 0 0 0 -1.393 -0.792l-0.13344-1.5837h-3.027zm1.5135 4.2857a1.7297 1.7143 0 0 1 1.7297 1.7143 1.7297 1.7143 0 0 1 -1.7297 1.7143 1.7297 1.7143 0 0 1 -1.7297 -1.7143 1.7297 1.7143 0 0 1 1.7297 -1.7143z"/>
</svg>
